Simply-Cyan-Circles/scalable/apps/kile.svg

<svg xmlns="http://www.w3.org/2000/svg" width="48" height="48" viewBox="0 0 12.7 12.7"><defs><linearGradient id="a"><stop offset="0" stop-color="#fff"/><stop offset="1" stop-color="#7cafec"/></linearGradient><linearGradient id="b"><stop stop-color="#2579b0"/><stop offset="1" stop-color="#7cbfec"/></linearGradient></defs><path d="M6.34.07a6.29 6.29 0 0 0-6.29 6.3 6.29 6.29 0 0 0 6.3 6.28 6.29 6.29 0 0 0 6.28-6.29A6.29 6.29 0 0 0 6.34.07zm-.01.94a5.4 5.4 0 0 1 5.4 5.4 5.4 5.4 0 0 1-5.4 5.41 5.4 5.4 0 0 1-5.41-5.4A5.4 5.4 0 0 1 6.32 1zM2.29 3.58v5.54h1.16V6.94l1.77 2.18h1.45L4.29 6.2l2.16-2.62H5.1L3.45 5.6V3.58H2.29zm6.75.08c-.36 0-.64.11-.85.32-.2.2-.31.5-.31.85 0 .4.11.72.35.95.23.24.54.36.93.36.38 0 .69-.13.91-.38.22-.25.34-.58.34-1a2.64 2.64 0 0 0-.2-1h-.36a2.3 2.3 0 0 1 .22.97 1 1 0 0 1-.21.68.88.88 0 0 1-.63.27V3.66h-.2zm-.12.44v1.56a.74.74 0 0 1-.52-.25.9.9 0 0 1-.19-.59.7.7 0 0 1 .2-.51c.13-.13.3-.2.51-.2zM7 7.07v.43h3.34v-.43H7zm0 1.55v.44h.5v-.44H7zm.93 0v.44h2.41v-.44h-2.4z" fill="#5beedc"/></svg>

<?xml version="1.0" encoding="UTF-8" standalone="no"?>
<svg
   xmlns:dc="http://purl.org/dc/elements/1.1/"
   xmlns:cc="http://creativecommons.org/ns#"
   xmlns:rdf="http://www.w3.org/1999/02/22-rdf-syntax-ns#"
   xmlns:svg="http://www.w3.org/2000/svg"
   xmlns="http://www.w3.org/2000/svg"
   xmlns:sodipodi="http://sodipodi.sourceforge.net/DTD/sodipodi-0.dtd"
   xmlns:inkscape="http://www.inkscape.org/namespaces/inkscape"
   width="48"
   height="48"
   viewBox="0 0 12.7 12.7"
   version="1.1"
   id="svg16"
   sodipodi:docname="kile.svg"
   inkscape:version="0.92.4 (5da689c313, 2019-01-14)">
  <metadata
     id="metadata20">
    <rdf:RDF>
      <cc:Work
         rdf:about="">
        <dc:format>image/svg+xml</dc:format>
        <dc:type
           rdf:resource="http://purl.org/dc/dcmitype/StillImage" />
        <dc:title></dc:title>
      </cc:Work>
    </rdf:RDF>
  </metadata>
  <sodipodi:namedview
     pagecolor="#ffffff"
     bordercolor="#666666"
     borderopacity="1"
     objecttolerance="10"
     gridtolerance="10"
     guidetolerance="10"
     inkscape:pageopacity="0"
     inkscape:pageshadow="2"
     inkscape:window-width="1087"
     inkscape:window-height="480"
     id="namedview18"
     showgrid="false"
     inkscape:zoom="4.9166667"
     inkscape:cx="2.1355932"
     inkscape:cy="24"
     inkscape:window-x="0"
     inkscape:window-y="25"
     inkscape:window-maximized="0"
     inkscape:current-layer="svg16" />
  <defs
     id="defs12">
    <linearGradient
       id="a">
      <stop
         offset="0"
         stop-color="#fff"
         id="stop2" />
      <stop
         offset="1"
         stop-color="#7cafec"
         id="stop4" />
    </linearGradient>
    <linearGradient
       id="b">
      <stop
         stop-color="#2579b0"
         id="stop7" />
      <stop
         offset="1"
         stop-color="#7cbfec"
         id="stop9" />
    </linearGradient>
  </defs>
  <path
     d="M 6.34,0.07 A 6.29,6.29 0 0 0 0.05,6.37 6.29,6.29 0 0 0 6.35,12.65 6.29,6.29 0 0 0 12.63,6.36 6.29,6.29 0 0 0 6.34,0.07 Z M 6.33,1.01 a 5.4,5.4 0 0 1 5.4,5.4 5.4,5.4 0 0 1 -5.4,5.41 A 5.4,5.4 0 0 1 0.92,6.42 5.4,5.4 0 0 1 6.32,1 Z M 2.29,3.58 V 9.12 H 3.45 V 6.94 L 5.22,9.12 H 6.67 L 4.29,6.2 6.45,3.58 H 5.1 L 3.45,5.6 V 3.58 Z m 6.75,0.08 c -0.36,0 -0.64,0.11 -0.85,0.32 -0.2,0.2 -0.31,0.5 -0.31,0.85 0,0.4 0.11,0.72 0.35,0.95 0.23,0.24 0.54,0.36 0.93,0.36 0.38,0 0.69,-0.13 0.91,-0.38 0.22,-0.25 0.34,-0.58 0.34,-1 a 2.64,2.64 0 0 0 -0.2,-1 H 9.85 A 2.3,2.3 0 0 1 10.07,4.73 1,1 0 0 1 9.86,5.41 0.88,0.88 0 0 1 9.23,5.68 V 3.66 H 9.03 Z M 8.92,4.1 V 5.66 A 0.74,0.74 0 0 1 8.4,5.41 0.9,0.9 0 0 1 8.21,4.82 0.7,0.7 0 0 1 8.41,4.31 C 8.54,4.18 8.71,4.11 8.92,4.11 Z M 7,7.07 V 7.5 h 3.34 V 7.07 Z M 7,8.62 V 9.06 H 7.5 V 8.62 Z m 0.93,0 v 0.44 h 2.41 V 8.62 h -2.4 z"
     id="path14"
     inkscape:connector-curvature="0"
     style="fill:#5beedc" />
</svg>
